X:95
T:In Yonder Grove - Cole
C:Taken down from Geo. Cole, by H.Fl.S.
%%VWML:SBG-1-1-451-0
F:http://www.vwml.org/record/SBG/1/1/451
Z:Original Sibleius Transcription by Martin and Shan Graebe
L:1/8
M:3/4
I:linebreak $
K:C
d d G | G2 G B c B | B2 G2 d2 | B c B A f e |$ d2 z G A G | g2 d2 e c | d2 G G G G | f3 d e d | 
c2 z |] 
